X:382
T:Reel 382
M:4/4
K:Emin
L:1/8
BA|GFEB  (3B^cd Ac|BG (3GFE BcAc|BGEF GABc||dddB AGF:||2ABde dBAc|Bee^d e2ef|gfed edBe|dBAG A2A2|dee^d e2ef|gedf e2BA| (3d^cd ec dBef|dBec d2ef|gefe dBBA|dBAF E2|
